X: 1445
T: Mickey By The Fireside
M:C|
L:1/8
B:O'Neill's 1445
Z:"Transcribed by Bob Safranek, rjs@gsp.org"
K:D
d2  dB  AFAB | d2  dB  gfec | d2 (dB) ADFA | gfed cABc |
d2 (dB) AFAB | d2  dB  gfec | d2 (dB) ADFA | gfed cdef ||
d2 (ad) fdad | d2 (ad) gfec | d2 (ad) fdad | cBAB cdef |
d2 (ad) fdad | d2 (ad) cdef | gbaf    gefd | edcB ABcA |]


